src/icons/svgs/24/circle-question.svg

<svg width="24" height="24" viewBox="0 0 24 24" fill="none" xmlns="http://www.w3.org/2000/svg">
<path d="M12 2C6.47656 2 2 6.47656 2 12C2 17.5234 6.47656 22 12 22C17.5234 22 22 17.5234 22 12C22 6.47656 17.5234 2 12 2ZM12 20.125C7.51953 20.125 3.875 16.4801 3.875 12C3.875 7.51992 7.51953 3.875 12 3.875C16.4805 3.875 20.125 7.51992 20.125 12C20.125 16.4801 16.4805 20.125 12 20.125ZM12 15.125C11.2969 15.125 10.75 15.6719 10.75 16.375C10.75 17.0781 11.2617 17.625 12 17.625C12.668 17.625 13.25 17.0781 13.25 16.375C13.25 15.6719 12.668 15.125 12 15.125ZM13.293 7H11.2969C9.77344 7 8.5625 8.21094 8.5625 9.73438C8.5625 10.2422 8.99219 10.6719 9.5 10.6719C10.0078 10.6719 10.4375 10.2422 10.4375 9.73438C10.4375 9.26562 10.793 8.875 11.2617 8.875H13.2578C13.7617 8.875 14.1875 9.26562 14.1875 9.73438C14.1875 10.0469 14.0312 10.2852 13.7578 10.4414L11.5312 11.8047C11.2188 12 11.0625 12.3125 11.0625 12.625V13.25C11.0625 13.7578 11.4922 14.1875 12 14.1875C12.5078 14.1875 12.9375 13.7578 12.9375 13.25V13.1719L14.6992 12.0781C15.5195 11.5703 16.0273 10.6719 16.0273 9.73438C16.0625 8.21094 14.8516 7 13.293 7Z" fill="black"/>
</svg>

<svg width="24" height="24" viewBox="0 0 24 24" xmlns="http://www.w3.org/2000/svg">
    <path d="M12 2C6.477 2 2 6.477 2 12s4.477 10 10 10 10-4.477 10-10S17.523 2 12 2Zm0 18.125c-4.48 0-8.125-3.645-8.125-8.125S7.52 3.875 12 3.875 20.125 7.52 20.125 12 16.48 20.125 12 20.125Zm0-5c-.703 0-1.25.547-1.25 1.25s.512 1.25 1.25 1.25c.668 0 1.25-.547 1.25-1.25s-.582-1.25-1.25-1.25ZM13.293 7h-1.996a2.718 2.718 0 0 0-2.735 2.734c0 .508.43.938.938.938a.95.95 0 0 0 .938-.938c0-.468.355-.859.824-.859h1.996c.504 0 .93.39.93.86 0 .312-.157.55-.43.706l-2.227 1.364a.964.964 0 0 0-.469.82v.625c0 .508.43.938.938.938a.95.95 0 0 0 .938-.938v-.078l1.761-1.094c.82-.508 1.328-1.406 1.328-2.344C16.062 8.211 14.852 7 13.293 7Z"/>
</svg>
